X: 3408
Q: "Andante."
M: 6/8
L: 1/8
K: D
[|!p!\
[|!f!\
d>AA e>AA | f>ed dcB | !p!A>BA ADE | F<AF (E2D) |\
d>AA efHg | f>ed dcB | A>BA Ade | f<af (e2d) |]


